pype/resources/ftrack/action_icons/PypeDoctor.svg

<?xml version="1.0" ?>
<svg id="Layer_1" style="enable-background:new 0 0 512 512;" version="1.1" viewBox="0 0 512 512" xml:space="preserve" xmlns="http://www.w3.org/2000/svg" xmlns:xlink="http://www.w3.org/1999/xlink">
	<g>
		<g>
	        <linearGradient gradientUnits="userSpaceOnUse" id="SVGID_1_" x1="-0.0000027" x2="512" y1="256" y2="256">
				<stop offset="0" style="stop-color:#ffffff"/>
				<stop offset="1" style="stop-color:#aaaaaa"/>
	        </linearGradient><circle cx="256" cy="256" fill="url(#SVGID_1_)" r="256"/>
	        <linearGradient gradientUnits="userSpaceOnUse" id="SVGID_2_" x1="42.6666641" x2="469.3333435" y1="256.0005188" y2="256.0005188">
				<stop offset="0" style="stop-color:#aaaaaa"/>
				<stop offset="1" style="stop-color:#ffffff"/>
	        </linearGradient>
	        <path d="M256,469.3338623c-117.6314697,0-213.3333435-95.7023926-213.3333435-213.3333435    c0-117.6314545,95.7018661-213.333313,213.3333435-213.333313c117.6357422,0,213.3333435,95.7018661,213.3333435,213.333313    C469.3333435,373.6314697,373.6357422,469.3338623,256,469.3338623z" fill="url(#SVGID_2_)"/>
      	</g>
		<g>
			<path
				fill="#007dce"
				d="
				M386.6,277.5
				c-16.3-16.2-42.7-16.2-58.9,0
				c-2.3,2.3-4.2,4.8-5.9,7.4
				c0,0,0,0,0,0
				c-0.1,0.2-0.1,0.3-0.2,0.5

				c-21.4-2.3-53.7,4.9-74.4,44.4
				c-13.7,26-35.8,44.3-57.9,47.7
				c-9.4,1.4-22.9,0.7-34.4-10.7
				c-14.8-14.7-21.6-37.1-16.7-54.4

				c1.8-6.4,6.2-14.5,16.4-16.8
				c21.2-4.9,38.3-13,48.7-18.9
				c0.3,0.3,0.6,0.5,0.9,0.8
				c5.5,4,11.7,7.1,18.6,9.1

				c6.3,1.9,12.8,0.5,17.6-3.2
				c37.1,1.9,77.8-20.8,80.1-22.1
				c4.8-2.8,7-8.4,5.4-13.5
				c0,0,0,0,0,0
				l-3-4.2
				l3,4.2

				c26.4-21,29.7-41.6,29.2-51.8
				c0,0,0,0,0,0
				c2.7-1.9,4.2-5.2,3.5-8.5
				l-3.4-16.1
				c-0.9-4.2-4.9-6.6-9-5.2
				l-13.7,4.3

				c-4.1,1.3-5.8,5.4-3.7,9.2
				l7.8,14.2
				c2,3.6,6.7,5.6,10.7,4.8
				c0,0.1,0,0.1,0,0.2
				c-0.3,9-4.3,25.5-26,42.8
				c0,0,0,0-0.1,0

				c-3.6-2.4-8.3-2.8-12.4-0.5
				c-12.2,6.8-39.5,18.8-62.7,19.2
				c-2.2-5-6.4-9.1-12.1-10.8
				c-3.7-1.1-6.7-2.8-9.2-5.2
				l-0.5-0.5

				c-2.5-2.6-4.3-5.8-5.4-9.7
				c-1.6-5.6-5.5-9.9-10.4-12.2
				c0.7-22.9,12.5-49.5,19.3-61.4
				c2.2-3.9,1.9-8.5-0.4-12
				l-0.7-0.5
				l0.7,0.5
				c-0.1-0.1-0.1-0.2-0.2-0.3
				c17.5-21.8,34.1-25.7,43.2-26
				v0
				c0,0,0,0,0,0
				c-0.9,4,1.1,8.7,4.8,10.7
				l14.3,7.8
				c3.8,2,7.9,0.4,9.3-3.7

				l4.3-13.6
				c1.3-4.1-1-8.1-5.3-9
				l-16.1-3.4
				c-3.2-0.7-6.5,0.8-8.4,3.3
				c-0.1,0.1-0.1,0.1-0.2,0.2
				c-10.2-0.4-31,2.7-52.1,29.1
				l-0.1,0.1

				c-5.1-1.6-10.8,0.6-13.6,5.4
				c-1.3,2.3-23.3,41.5-22.2,77.9
				c-4,4.8-5.7,11.3-3.8,17.7
				c1.3,4.4,2.9,8.5,4.9,12.3

				c0.4,0.6,0.9,1.2,1.3,1.9
				c-9,4.6-22.6,10.4-38.4,14
				c-16.4,3.8-28.7,15.8-33.7,33.1
				c-7.3,25.5,1.8,56.6,22.6,77.3

				c14.3,14.3,33.7,20.4,54.5,17.2
				c29.7-4.6,57.8-27,75.1-59.9
				c15.2-29,36-32.9,48.2-32.2
				c0.4,9,3.4,18,9.4,25.4

				c0.7,0.8,1.4,1.6,2.2,2.4
				c16.3,16.2,42.7,16.2,58.9,0
				C402.9,319.9,402.9,293.7,386.6,277.5
				z

				M368.7,318.2
				c-6.4,6.3-16.7,6.3-23,0

				c-6.3-6.3-6.3-16.6,0-22.9
				c6.4-6.3,16.7-6.3,23,0
				C375,301.7,375,311.9,368.7,318.2
				z"
			/>
		</g>
    </g>
</svg>

<?xml version="1.0" encoding="UTF-8" standalone="no"?>
<!DOCTYPE svg PUBLIC "-//W3C//DTD SVG 1.1//EN" "http://www.w3.org/Graphics/SVG/1.1/DTD/svg11.dtd">
<svg width="100%" height="100%" viewBox="0 0 512 512" version="1.1" xmlns="http://www.w3.org/2000/svg" xmlns:xlink="http://www.w3.org/1999/xlink" xml:space="preserve" xmlns:serif="http://www.serif.com/" style="fill-rule:evenodd;clip-rule:evenodd;stroke-linejoin:round;stroke-miterlimit:2;">
    <g>
        <g>
            <circle cx="256" cy="256" r="256" style="fill:rgb(205,205,205);"/>
            <path d="M256,469.334C138.369,469.334 42.667,373.631 42.667,256.001C42.667,138.369 138.369,42.667 256,42.667C373.636,42.667 469.333,138.369 469.333,256.001C469.333,373.631 373.636,469.334 256,469.334Z" style="fill:rgb(205,205,205);fill-rule:nonzero;"/>
        </g>
        <g>
            <path d="M386.6,277.5C370.3,261.3 343.9,261.3 327.7,277.5C325.4,279.8 323.5,282.3 321.8,284.9C321.7,285.1 321.7,285.2 321.6,285.4C300.2,283.1 267.9,290.3 247.2,329.8C233.5,355.8 211.4,374.1 189.3,377.5C179.9,378.9 166.4,378.2 154.9,366.8C140.1,352.1 133.3,329.7 138.2,312.4C140,306 144.4,297.9 154.6,295.6C175.8,290.7 192.9,282.6 203.3,276.7C203.6,277 203.9,277.2 204.2,277.5C209.7,281.5 215.9,284.6 222.8,286.6C229.1,288.5 235.6,287.1 240.4,283.4C277.5,285.3 318.2,262.6 320.5,261.3C325.3,258.5 327.5,252.9 325.9,247.8L322.9,243.6L325.9,247.8C352.3,226.8 355.6,206.2 355.1,196C357.8,194.1 359.3,190.8 358.6,187.5L355.2,171.4C354.3,167.2 350.3,164.8 346.2,166.2L332.5,170.5C328.4,171.8 326.7,175.9 328.8,179.7L336.6,193.9C338.6,197.5 343.3,199.5 347.3,198.7L347.3,198.9C347,207.9 343,224.4 321.3,241.7L321.2,241.7C317.6,239.3 312.9,238.9 308.8,241.2C296.6,248 269.3,260 246.1,260.4C243.9,255.4 239.7,251.3 234,249.6C230.3,248.5 227.3,246.8 224.8,244.4L224.3,243.9C221.8,241.3 220,238.1 218.9,234.2C217.3,228.6 213.4,224.3 208.5,222C209.2,199.1 221,172.5 227.8,160.6C230,156.7 229.7,152.1 227.4,148.6L226.7,148.1L227.4,148.6C227.3,148.5 227.3,148.4 227.2,148.3C244.7,126.5 261.3,122.6 270.4,122.3C269.5,126.3 271.5,131 275.2,133L289.5,140.8C293.3,142.8 297.4,141.2 298.8,137.1L303.1,123.5C304.4,119.4 302.1,115.4 297.8,114.5L281.7,111.1C278.5,110.4 275.2,111.9 273.3,114.4C273.2,114.5 273.2,114.5 273.1,114.6C262.9,114.2 242.1,117.3 221,143.7L220.9,143.8C215.8,142.2 210.1,144.4 207.3,149.2C206,151.5 184,190.7 185.1,227.1C181.1,231.9 179.4,238.4 181.3,244.8C182.6,249.2 184.2,253.3 186.2,257.1C186.6,257.7 187.1,258.3 187.5,259C178.5,263.6 164.9,269.4 149.1,273C132.7,276.8 120.4,288.8 115.4,306.1C108.1,331.6 117.2,362.7 138,383.4C152.3,397.7 171.7,403.8 192.5,400.6C222.2,396 250.3,373.6 267.6,340.7C282.8,311.7 303.6,307.8 315.8,308.5C316.2,317.5 319.2,326.5 325.2,333.9C325.9,334.7 326.6,335.5 327.4,336.3C343.7,352.5 370.1,352.5 386.3,336.3C402.9,319.9 402.9,293.7 386.6,277.5ZM368.7,318.2C362.3,324.5 352,324.5 345.7,318.2C339.4,311.9 339.4,301.6 345.7,295.3C352.1,289 362.4,289 368.7,295.3C375,301.7 375,311.9 368.7,318.2Z" style="fill:rgb(64,64,64);fill-rule:nonzero;"/>
        </g>
    </g>
</svg>
